X:1
T:Tutttu lu tiempu
T:Horatio Vecchi
T:Source : La Veglie di Siena---Venetia---Ang.Gardano---1604. Editor : André Vierendeels (03/04/17).
T:Notes : Original clefs : C4, C4, F4 Editorial accidentals above the staff Original note values have been quartered in 3-beat measures Dotted brackets indicate black notes "Imitatione del Siciliano"
T:Tutttu lu tiempu
T:©
T:©
T:©
T:©
T:©
C:Horatio Vecchi
Z:©
%%score [ 1 2 3 ]
L:1/8
Q:1/4=100
M:2/2
K:F
V:1 treble-8 nm="Tenor 1" snm="T 1"
V:2 treble-8 nm="Tenor 2" snm="T 2"
V:3 bass nm="Bass" snm="B"
V:1
 A2 AB c4 | A8 | z8 | A2 AB c4 | A8 | z8 | AA c2 cc c2 | cc c2 cc B2 | c2 CC F4 | G4 z2 c2 | %10
w: Tut- tu lu tiem-|pu,||tu- tu lu ior-|nu,||tu- tu lu tiem- pu lu|ior- nu lu chia- tu lu|cor' ha- iu spis-|su, con|
 c4 c2 c2- | c2 d2 e4 | c8 |:[M:6/4] z2 z2 G2 G3 G G2 | G4 A2 G2 G2 z2 | G2 G2 A2 G2 G2 z2 | %16
w: l'a- mu- ru-|* sa me-|a,|ch'a- mu- ri è'un|truf- fa- riel- lu,|piz- zi- cha- riel- lu,|
 z2 z2 G2 G4 G2 | G2 G2 F2 G4 A2 | F4 c4 B4 | A12- | A4 c2 c4 c2 | c4 c2 c4 c2 | c4 B2 A4 A2 | %23
w: ch'a chi- se'a|chil- l'a chil- l'au- tru|da mar- tiel-|lu,|_ lu'e- ra pic-|ciu- su spis- su|mi fa chian- gi-|
 A4 z2 d2 c2 c2 | c4 B2 c4 =B2 | c2 A4 =B4 _B2 | c2 A4 =B4 _B2 | B2 A4 B3 A G2 | G2 ^F4 G3 d d2 | %29
w: ri, ma di- ce-|re lu vo- glio'a|la mam- ma a|la mam- ma, tra|na nai na la tra|na nai na la tra|
 d2 d4 d3 d B2 | c2 A4 !fermata!G6 :| %31
w: na nai na la tra|na nai na.|
V:2
 F2 FG A4 | F4 A2 AB | c4 A4 | F2 FG A4 | F4 A2 AB | c4 A4 | AA G2 AA A2 | AA A2 AA B2 | %8
w: Tut- tu lu tiem-|pu, tut- tu lu|ior- nu,|tut- tu lu chia-|tu, tut- tu lu|cuo- ri,|tut- tu lu tiem- pu lu|ior- nu lu chia- tu lu|
 A2 cc =B4 | c4 z2 G2 | A4 A2 A2- | A2 F2 G4 | A8 |:[M:6/4] z2 z2 E2 E3 D E2 | E4 F2 E2 E2 z2 | %15
w: cor' ha- iu spis-|su, con|l'a- mu- su-|* sa me-|a,|ch'a- mu- ri è'un|truf- fa riel- lu,|
 E2 E2 F2 E2 E2 z2 | z2 z2 E2 E4 E2 | E2 E2 D2 E4 F2 | D4 E2 F4 E2 | F12- | F4 A2 A4 A2 | %21
w: piz- zi cha- riel- lu,|ch'a chi se'a|chil- l'a chil- l'au- tru|da mar- tiel- *|lu,|_ lu'e- ra pic-|
 A4 A2 A4 A2 | A4 G2 ^F4 F2 | ^F4 z2 B2 A2 A2 | A4 G2 A4 G2 | A2 ^F4 G4 G2 | A2 ^F4 G4 d2 | %27
w: ciu- su spis- su|mi fa chian- gi-|ri, ma di- ce-|re lu vo- glio'a|la mam- ma a|la mam- ma, tra-|
 d2 d4 d3 d B2 | c2 A4 B3 A B2 | B2 A4 B3 A G2 | G2 ^F4 !fermata!G6 :| %31
w: na mai na la tra|na nai na la tra|na nai na la tra|na nai na.|
V:3
 z8 | z4 F,2 F,G, | A,4 F,4 | z8 | z4 F,2 F,G, | A,4 F,4 | F,F, E,2 F,F, F,2 | F,F, F,2 F,F, G,2 | %8
w: |Tut- tu lu|tiem- pu||Tut- tu lu|cuo- ri,|tut- tu lu tiem- pu lu|ior- nu lu chia- tu lu|
 F,2 E,E, D,4 | C,4 z2 C,2 | F,4 F,2 F,2- | F,2 D,2 C,4 | F,,8 |:[M:6/4] z2 z2 C,2 C,3 B,, C,2 | %14
w: cor' ha- iu spis-|su, con|l'a- mu- su-|* sa me-|a,|ch´a- mu- ri è'un|
 C,4 C,2 C,2 C,2 z2 | C,2 C,2 C,2 C,2 C,2 z2 | z2 z2 C,2 C,4 C,2 | C,2 C,2 D,2 C,4 A,,2 | %18
w: truf- fa- rie- lu,|piz- zi cha- riel- lu,|ch'a chi se'a|chil- l'a chil- l'au- tru|
 B,,4 A,,4 G,,4 | F,,12- | F,,4 F,2 F,4 F,2 | F,4 F,2 F,4 F,2 | F,4 G,2 D,4 D,2 | %23
w: da mar- tiel-|lu,|_ lu'e- ra pic-|ciu- su spis- su|mi fa chiam- gi-|
 D,4 z2 B,,2 F,2 F,2 | F,4 G,2 F,4 G,2 | C,2 D,4 G,,4 G,2 | C,2 D,4 G,,4 G,2 | %27
w: ri, ma di- ce-|re lu vo- glio'a|la mam- ma, a|la mam- ma, tra|
 G,2 ^F,4 G,3 =F, _E,2 | C,2 D,4 G,,3 D, G,2 | G,2 ^F,4 G,3 =F, _E,2 | C,2 D,4 !fermata!G,,6 :| %31
w: na nai na la tra|na nai na la tra|na nai na la tra|na nai na,|

